X:1
T: Gardner's Hornpipe
M: C|
B: James Campbell's Collection 1798
Z: source from Highland Music Trust, chords by Gary Whaley
L: 1/8
K: A
[|: "A" e2>c2 "E"dB AG|"A"Ac BA "E"GF ED|"A"(CE) Ac "E"EG ED | "A"CE Ac "E"EG Bc|"D"dB "A"cA "E"(AG) FE |
|"A" e2>c2 "E"dB AG|"A"Ac BA "E"GF ED|"A"(CE) Ac "E"EG ED | "A"CE Ac "E"EG Bc | "A" cA "E"BG "A"A4 :|]
[|: "A"e2 C2 "D"f2 D2|"E"g2 E2 "A"a2>e2|"D"(fe) dc "E"(Bc) df|"A"ec "D"dB "A"AG "E"FE |
|"A"e2 C2 "D"f2 D2|"E"g2 E2 "A"a2>e2|"D"(fa) fd "A"(ce) Ac| "E" (dB) "A"AG A4 :|]
